X:1
T:Title
%%score { 1 | 2 }
L:1/8
Q:1/4=100
M:4/4
K:Ab
V:1 treble nm="Grand Piano"
V:2 bass 
V:1
 [CA]2 [CA]2 [DF]2 [CE]2 | [CA]2 [CA]2 [DF]2 [CE]2 | [CA]2 [EA]B cc[EA][EA] | B2 c2 B4 | %4
w: Elisha~A.~Hoffman * * *||||
 e2 e2 c2 A2 |[M:9/8] c2 B- B A2 F3 |[M:4/4] [CE]2 [EA]B cc[EA][EA] | B2 c2 A4 | %8
w: ||||
 [CA]2 [CA][CA] [DF][CE] [CE]2 | [CA][CA][CA][CA] [DF][CE] [CE]2 | [CA]2 [CA]2 [Ec]2 [EA]2 | %11
w: |||
 [EB]2 [Ge]2 [Ge]4 | [CA]2 [CA][CA] [DF][CE] [CE]2 | [CA][CA][CA][CA] [DF][CE] [CE]2 | %14
w: |||
 [Ae]2 [Ae]2 [Ec]2 [EA]2 | [Ec]2 [DB]2 [CA]4 |] %16
w: ||
V:2
 [A,,E,]2 [A,,E,]2 [A,,A,]2 [A,,A,]2 | [A,,E,]2 [A,,E,]2 [A,,A,]2 [A,,A,]2 | %2
 [A,,A,]2 [C,A,][E,G,E] [A,E][A,E][C,A,][C,A,] | [E,G,E]2 [E,A,E]2 [E,G,E]4 | %4
 [A,CA]2 [A,CA]2 [A,E]2 [A,CE]2 |[M:9/8] [A,E]2[K:bass] [E,G,D]- [E,G,D] [F,A,C]2 [D,A,D]3 | %6
[M:4/4] [A,,A,]2 [C,A,][E,G,E] [A,E][A,E][C,A,][C,A,] | [E,G,D]2 [E,G,E]2 [E,A,C]4 | %8
 [A,,E,]2 [A,,E,][A,,E,] [A,,A,][A,,A,] [A,,A,]2 | %9
 [A,,E,][A,,E,][A,,E,][A,,E,] [A,,A,][A,,A,] [A,,A,]2 | [A,,E,]2 [A,,E,]2 [A,,A,]2 [C,A,]2 | %11
 [E,G,]2 [E,B,]2 [E,B,]4 | [A,,E,]2 [A,,E,][A,,E,] [A,,A,][A,,A,] [A,,A,]2 | %13
 [A,,E,][A,,E,][A,,E,][A,,E,] [A,,A,][A,,A,] [A,,A,]2 | [A,,C]2 [A,,C]2 [A,,A,]2 [C,A,]2 | %15
 [E,A,]2 [E,G,]2 [A,,E,A,]4 |] %16

